img/webmon_icon.svg

<svg width="120" height="120" viewBox="0 0 120 120" fill="none" xmlns="http://www.w3.org/2000/svg">
<rect x="3" y="3" width="114" height="114" rx="57" stroke="#6ADAAB" stroke-width="6"/>
<path d="M52.422 72.2525C52.422 70.4261 51.8607 68.9221 50.738 67.7404C49.6154 66.5372 47.7443 65.4628 45.1247 64.5175C42.5052 63.5506 40.4678 62.6589 39.0125 61.8424C34.1684 59.1567 31.7464 55.1817 31.7464 49.9176C31.7464 46.3509 32.7963 43.4181 34.896 41.1191C36.9958 38.8201 39.2204 37.5201 42.817 37.0904V30H48.4304V37.0904C52.0478 37.6276 54.8441 39.2175 56.8191 41.8603C58.7942 44.4816 59.7817 47.8979 59.7817 52.1092H52.2349C52.2349 49.402 51.6424 47.2748 50.4574 45.7278C49.2931 44.1594 47.7027 43.3751 45.6861 43.3751C43.6902 43.3751 42.131 43.9338 41.0083 45.051C39.8857 46.1683 39.3243 47.769 39.3243 49.8532C39.3243 51.7225 39.8753 53.2265 40.9771 54.3653C42.0998 55.4825 43.9917 56.5461 46.6528 57.556C49.3139 58.5658 51.4033 59.5004 52.921 60.3599C54.4387 61.2193 55.7173 62.2077 56.7568 63.325C57.7963 64.4208 58.5967 65.6885 59.158 67.128C59.7193 68.5676 60 70.2543 60 72.188C60 75.8192 58.9189 78.7628 56.7568 81.0188C54.6154 83.2748 52.0166 84.6392 48.1705 85.0475V90H42.817V85.0475C38.7006 84.5748 35.5301 83.0492 33.3056 80.4709C31.1019 77.8926 30 74.4763 30 70.222H37.578C37.578 72.9293 38.2328 75.0242 39.5426 76.5067C40.8732 77.9893 42.7443 78.7305 45.1559 78.7305C47.526 78.7305 49.3243 78.1397 50.5509 76.9579C51.7983 75.7762 52.422 74.2077 52.422 72.2525Z" fill="#6ADAAB"/>
<rect x="70" y="55" width="5" height="15" fill="#6ADAAB"/>
<rect x="80" y="50" width="5" height="25" fill="#6ADAAB"/>
<rect x="90" y="45" width="5" height="35" fill="#6ADAAB"/>
</svg>

<svg width="120" height="120" viewBox="0 0 120 120" fill="none" xmlns="http://www.w3.org/2000/svg"><rect x="3" y="3" width="114" height="114" rx="57" stroke="#6ADAAB" stroke-width="6"/><path d="M52.422 72.252c0-1.826-.561-3.33-1.684-4.512-1.123-1.203-2.994-2.277-5.613-3.222-2.62-.967-4.657-1.86-6.112-2.676-4.845-2.685-7.267-6.66-7.267-11.924 0-3.567 1.05-6.5 3.15-8.799 2.1-2.299 4.324-3.599 7.921-4.029V30h5.613v7.09c3.618.538 6.414 2.127 8.39 4.77 1.974 2.622 2.962 6.038 2.962 10.25h-7.547c0-2.708-.593-4.835-1.778-6.382-1.164-1.569-2.754-2.353-4.77-2.353-1.997 0-3.556.559-4.679 1.676-1.122 1.117-1.684 2.718-1.684 4.802 0 1.87.551 3.373 1.653 4.512 1.123 1.117 3.015 2.181 5.676 3.191 2.66 1.01 4.75 1.944 6.268 2.804 1.518.86 2.796 1.848 3.836 2.965a11.58 11.58 0 012.401 3.803c.561 1.44.842 3.126.842 5.06 0 3.631-1.081 6.575-3.243 8.83-2.142 2.257-4.74 3.621-8.587 4.03V90h-5.353v-4.953c-4.116-.472-7.287-1.998-9.511-4.576C31.102 77.893 30 74.476 30 70.222h7.578c0 2.707.655 4.802 1.965 6.285 1.33 1.482 3.201 2.224 5.613 2.224 2.37 0 4.168-.591 5.395-1.773 1.247-1.182 1.871-2.75 1.871-4.706zM70 55h5v15h-5zm10-5h5v25h-5zm10-5h5v35h-5z" fill="#6ADAAB"/></svg>
